apps/scalable/fortran.svg

<svg xmlns="http://www.w3.org/2000/svg" style="isolation:isolate" width="256" height="256"><defs><filter id="a" width="270.648" height="254.338" x="-7.32" y="2.95" filterUnits="userSpaceOnUse"><feGaussianBlur xmlns="http://www.w3.org/2000/svg" in="SourceGraphic" stdDeviation="4.294"/><feOffset xmlns="http://www.w3.org/2000/svg" dy="4" result="pf_100_offsetBlur"/><feFlood xmlns="http://www.w3.org/2000/svg" flood-opacity=".4"/><feComposite xmlns="http://www.w3.org/2000/svg" in2="pf_100_offsetBlur" operator="in" result="pf_100_dropShadow"/><feBlend xmlns="http://www.w3.org/2000/svg" in="SourceGraphic" in2="pf_100_dropShadow"/></filter></defs><path fill="#5D5D5D" d="M165.685 11.947c74.055 0 84.639 10.557 84.639 84.544v59.251c0 73.986-10.584 84.543-84.639 84.543h-75.37c-74.055 0-84.639-10.557-84.639-84.543V96.491c0-73.987 10.584-84.544 84.639-84.544h75.37z" filter="url(#a)"/><path fill="#FFF" d="M128 11.947v228.338h37.685c74.055 0 84.639-10.557 84.639-84.543V96.491c0-73.987-10.584-84.544-84.639-84.544H128z" opacity=".2"/><g opacity=".4"><linearGradient id="b" x1=".517" x2=".517" y2="1"><stop offset="0%" stop-color="#fff"/><stop offset="12.5%" stop-opacity=".098" stop-color="#fff"/><stop offset="92.5%" stop-opacity=".098"/><stop offset="100%" stop-opacity=".498"/></linearGradient><path fill="none" stroke="url(#b)" stroke-linecap="round" stroke-linejoin="round" stroke-width="4.077" d="M165.685 11.947c74.055 0 84.639 10.557 84.639 84.544v59.251c0 73.986-10.584 84.543-84.639 84.543h-75.37c-74.055 0-84.639-10.557-84.639-84.543V96.491c0-73.987 10.584-84.544 84.639-84.544h75.37z" vector-effect="non-scaling-stroke"/></g><defs><filter id="c" width="172.667" height="170" x="41.67" y="47" filterUnits="userSpaceOnUse"><feGaussianBlur xmlns="http://www.w3.org/2000/svg" in="SourceGraphic" stdDeviation="4.294"/><feOffset xmlns="http://www.w3.org/2000/svg" dy="4" result="pf_100_offsetBlur"/><feFlood xmlns="http://www.w3.org/2000/svg" flood-opacity=".4"/><feComposite xmlns="http://www.w3.org/2000/svg" in2="pf_100_offsetBlur" operator="in" result="pf_100_dropShadow"/><feBlend xmlns="http://www.w3.org/2000/svg" in="SourceGraphic" in2="pf_100_dropShadow"/></filter></defs><path fill="#FEC589" d="M54.667 192.667v-7.334h11.066c6.83 0 11.68-.612 12.667-1.6 2.299-2.299 2.299-109.167 0-111.466-.987-.988-5.837-1.6-12.667-1.6H54.667V56h146.666v56h-11.614l-.811-8.683c-1.139-12.2-3.461-19.007-8.197-24.028-6.78-7.189-14.365-8.622-45.62-8.622H108v49.556l15.973-.445c15.406-.429 16.105-.576 19.667-4.139 3.102-3.103 3.8-5.131 4.36-12.667l.667-8.972 6.333-.406 6.333-.407V160h-12l-.075-5.667c-.105-7.916-2.623-14.279-6.907-17.455-3.028-2.246-6.255-2.805-19-3.293L108 132.998v24.787c0 29.166-.974 27.548 16.579 27.548H136V200H54.667v-7.333z" filter="url(#c)"/></svg>

<svg xmlns="http://www.w3.org/2000/svg" style="isolation:isolate" width="256" height="256" viewBox="0 0 256 256">
 <defs>
  <filter id="IpHkGWGYkKSNyEY1sC6A1vbCdECvUX9y" width="270.648" height="254.338" x="-7.32" y="2.95" filterUnits="userSpaceOnUse">
   <feGaussianBlur xmlns="http://www.w3.org/2000/svg" in="SourceGraphic" stdDeviation="4.294"/>
   <feOffset xmlns="http://www.w3.org/2000/svg" dx="0" dy="4" result="pf_100_offsetBlur"/>
   <feFlood xmlns="http://www.w3.org/2000/svg" flood-opacity=".4"/>
   <feComposite xmlns="http://www.w3.org/2000/svg" in2="pf_100_offsetBlur" operator="in" result="pf_100_dropShadow"/>
   <feBlend xmlns="http://www.w3.org/2000/svg" in="SourceGraphic" in2="pf_100_dropShadow" mode="normal"/>
  </filter>
 </defs>
 <g filter="url(#IpHkGWGYkKSNyEY1sC6A1vbCdECvUX9y)">
  <path fill="#5D5D5D" d="M 165.685 11.947 C 239.74 11.947 250.324 22.504 250.324 96.491 L 250.324 155.742 C 250.324 229.728 239.74 240.285 165.685 240.285 L 90.315 240.285 C 16.26 240.285 5.676 229.728 5.676 155.742 L 5.676 96.491 C 5.676 22.504 16.26 11.947 90.315 11.947 L 165.685 11.947 Z"/>
 </g>
 <g opacity=".2">
  <path fill="#FFFFFF" d="M 128 11.947 L 128 240.285 L 165.685 240.285 C 239.74 240.285 250.324 229.728 250.324 155.742 L 250.324 96.491 C 250.324 22.504 239.74 11.947 165.685 11.947 L 128 11.947 Z"/>
 </g>
 <g opacity=".4">
  <linearGradient id="_lgradient_172" x1=".517" x2=".517" y1="0" y2="1">
   <stop offset="0%" style="stop-color:rgb(255,255,255)"/>
   <stop offset="12.5%" stop-opacity=".098" style="stop-color:rgb(255,255,255)"/>
   <stop offset="92.5%" stop-opacity=".098" style="stop-color:rgb(0,0,0)"/>
   <stop offset="100%" stop-opacity=".498" style="stop-color:rgb(0,0,0)"/>
  </linearGradient>
  <path fill="none" stroke="url(#_lgradient_172)" stroke-linecap="round" stroke-linejoin="round" stroke-width="4.077" d="M 165.685 11.947 C 239.74 11.947 250.324 22.504 250.324 96.491 L 250.324 155.742 C 250.324 229.728 239.74 240.285 165.685 240.285 L 90.315 240.285 C 16.26 240.285 5.676 229.728 5.676 155.742 L 5.676 96.491 C 5.676 22.504 16.26 11.947 90.315 11.947 L 165.685 11.947 Z" vector-effect="non-scaling-stroke"/>
 </g>
 <defs>
  <filter id="8SxPMkY8PgxTS4No7X9a1cBtpBpuV7La" width="172.667" height="170" x="41.67" y="47" filterUnits="userSpaceOnUse">
   <feGaussianBlur xmlns="http://www.w3.org/2000/svg" in="SourceGraphic" stdDeviation="4.294"/>
   <feOffset xmlns="http://www.w3.org/2000/svg" dx="0" dy="4" result="pf_100_offsetBlur"/>
   <feFlood xmlns="http://www.w3.org/2000/svg" flood-opacity=".4"/>
   <feComposite xmlns="http://www.w3.org/2000/svg" in2="pf_100_offsetBlur" operator="in" result="pf_100_dropShadow"/>
   <feBlend xmlns="http://www.w3.org/2000/svg" in="SourceGraphic" in2="pf_100_dropShadow" mode="normal"/>
  </filter>
 </defs>
 <g filter="url(#8SxPMkY8PgxTS4No7X9a1cBtpBpuV7La)">
  <path fill="#FEC589" d="M 54.667 192.667 L 54.667 185.333 L 65.733 185.333 C 72.563 185.333 77.413 184.721 78.4 183.733 C 80.699 181.434 80.699 74.566 78.4 72.267 C 77.413 71.279 72.563 70.667 65.733 70.667 L 54.667 70.667 L 54.667 63.333 L 54.667 56 L 128 56 L 201.333 56 L 201.333 84 L 201.333 112 L 195.526 112 L 189.719 112 L 188.908 103.317 C 187.769 91.117 185.447 84.31 180.711 79.289 C 173.931 72.1 166.346 70.667 135.091 70.667 L 108 70.667 L 108 95.445 L 108 120.223 L 123.973 119.778 C 139.379 119.349 140.078 119.202 143.64 115.639 C 146.742 112.536 147.44 110.508 148 102.972 L 148.667 94 L 155 93.594 L 161.333 93.187 L 161.333 126.594 L 161.333 160 L 155.333 160 L 149.333 160 L 149.258 154.333 C 149.153 146.417 146.635 140.054 142.351 136.878 C 139.323 134.632 136.096 134.073 123.351 133.585 L 108 132.998 L 108 157.785 C 108 186.951 107.026 185.333 124.579 185.333 L 136 185.333 L 136 192.667 L 136 200 L 95.333 200 L 54.667 200 L 54.667 192.667 Z"/>
 </g>
</svg>
